X: 14516
T: Gan Ainm
R: strathspey
M: 4/4
K: Dmajor
B|:A<DF>A d/c/B/A/ F>A|G>EF>D G/F/E/D/ B,>B|
A<DF>A d/c/B/A/ F> A|1 d>ef<d {d}e2d>B:|2 d>ef<d {d}e2 d>a||
f<ae>f d>BA>F|D>A{B}d>A G/F/E/D/ B,>g|f>ae<f d>AF>A|d>ef<d {d}e2 d>g|
f<ae>f d>BA>F|D>A{B}d>A G/F/E/D/ B, E|D>FE>G F>AG>B|A<FG<E D2 {B,}D2||

